X:6
T:The Braes of Lochiel
Z:Jack Campin, http://www.campin.me.uk/
F:Jack Campin's Nine-Note Tunebook
% last edit 03-02-2013
M:6/8
L:1/8
Q:1/4=80
K:DDor
A|D>EC D2D|d>cA G<Ac|E>DE G2E |G2c A<GE|
  D>EC D2D|d>cA G<Ac|E>DE G2A |E2D  D2:|
A|d>cd d2c|d>cA G<Ac|E>DE G2E |G2c A<GE|
  D>EC D2D|d>cA G<Ac|E>DE G>Ac|E2D  D2:|

